X:1
T:Cruiskeen Lawn
M:4/4
L:1/8
K:C
 E3/2 E/2| EA AB c2 Bc| dc BA _A2 E3/2 E/2| A2 ABc-B cd| e4 z2| e2|\
 ec ce g2 fe| dc Bc d2 cd| e3/2 d/2 cA e2 E2| A2 B2 c2| c3/2 d/2| e3/2 d/2 cA e2 E2|\
 A4 z4| e3/2 d/2 ce g2 g2| d3/2 c/2 GB d2 d2| A3/2 B/2 c3/2 d/2 e3/2- d/2 c3/2- B/2|\
 A2 e2 e2 a2| e3/2 f/2 e3/2 d/2 c2 B2| A4- A2||
